icons/arrow-chevron-double-down-filled.svg

<svg viewBox="0 0 24 24"><path fill="currentColor" fill-rule="evenodd" d="M18 2.4a3.6 3.6 0 0 1 3.6 3.6v12a3.6 3.6 0 0 1-3.6 3.6h-12a3.6 3.6 0 0 1-3.6-3.6v-12a3.6 3.6 0 0 1 3.6-3.6zm-9.3 3.9a1 1 0 0 0-1.4 1.4l4 4a1 1 0 0 0 1.4 0l4-4a1 1 0 0 0-1.4-1.4l-3.3 3.3zm0 6a1 1 0 0 0-1.4 1.4l4 4a1 1 0 0 0 1.4 0l4-4a1 1 0 0 0-1.4-1.4l-3.3 3.3z" clip-rule="evenodd"/></svg>

<svg viewBox="0 0 24 24"><path fill="currentColor" fill-rule="evenodd" d="M18 2.4A3.6 3.6 0 0 1 21.6 6v12a3.6 3.6 0 0 1-3.6 3.6H6A3.6 3.6 0 0 1 2.4 18V6A3.6 3.6 0 0 1 6 2.4zM8.7 6.3a1 1 0 0 0-1.4 1.4l4 4a1 1 0 0 0 1.4 0l4-4a1 1 0 0 0-1.4-1.4L12 9.6zm0 6a1 1 0 0 0-1.4 1.4l4 4a1 1 0 0 0 1.4 0l4-4a1 1 0 0 0-1.4-1.4L12 15.6z" clip-rule="evenodd"/></svg>
